!!!COM: des Prez, Josquin
!!!CDT: ~1450-1521/08/27
!!!OTL@@FRE: Plus nulz regretz
!!!AGN: Chanson; Rondeau
!!!SCT: NJE 28.28
!!!SCA: New Josquin Edition 28.28
!!!voices: 4
**kern	**text	**text	**text	**kern	**text	**text	**text	**kern	**text	**text	**text	**kern	**text	**text	**text
*staff4	*	*	*	*staff3	*	*	*	*staff2	*	*	*	*staff1	*	*	*
*Ivox	*	*	*	*Ivox	*	*	*	*Ivox	*	*	*	*Ivox	*	*	*
*I"Bassus	*	*	*	*I"Tenor	*	*	*	*I"Altus	*	*	*	*I"Superius	*	*	*
*I'B	*	*	*	*I'T	*	*	*	*I'A	*	*	*	*I'S	*	*	*
*>[A,B,A,A,B]	*	*	*	*>[A,B,A,A,B]	*	*	*	*>[A,B,A,A,B]	*	*	*	*>[A,B,A,A,B]	*	*	*
*clefF4	*	*	*	*clefGv2	*	*	*	*clefGv2	*	*	*	*clefG2	*	*	*
*k[]	*	*	*	*k[]	*	*	*	*k[]	*	*	*	*k[]	*	*	*
*M2/1	*	*	*	*M2/1	*	*	*	*M2/1	*	*	*	*M2/1	*	*	*
*met(C|)	*	*	*	*met(C|)	*	*	*	*met(C|)	*	*	*	*met(C|)	*	*	*
*>A	*	*	*	*>A	*	*	*	*>A	*	*	*	*>A	*	*	*
=1-	=1-	=1-	=1-	=1-	=1-	=1-	=1-	=1-	=1-	=1-	=1-	=1-	=1-	=1-	=1-
!	!	!	!	!	!	!	!	!	!	!	!	!LO:TX:Z=6:t=Rondeau lacking refrain (form&colon; abaab)	!	!	!
1A	1. Plus	3. Sur	4. Re-	0r	.	.	.	1r	.	.	.	0r	.	.	.
[1A	nulz	noz	-gretz	.	.	.	.	1A	1. Plus	3. Sur	4. Re-	.	.	.	.
=2	=2	=2	=2	=2	=2	=2	=2	=2	=2	=2	=2	=2	=2	=2	=2
2A\]	.	.	.	0r	.	.	.	2c\	nulz	noz	-gretz	0r	.	.	.
4G\	.	.	.	.	.	.	.	2d\	.	.	.	.	.	.	.
4F\	.	.	.	.	.	.	.	.	.	.	.	.	.	.	.
2G\	.	.	.	.	.	.	.	1e	re-	pre-	plus	.	.	.	.
2A\	re-	pre-	plus	.	.	.	.	.	.	.	.	.	.	.	.
=3	=3	=3	=3	=3	=3	=3	=3	=3	=3	=3	=3	=3	=3	=3	=3
0D	-gretz,	-aux	nulz	1d	1. Plus	3. Sur	4. Re-	1.f	-gretz,	-aux	nulz	1r	.	.	.
.	.	.	.	[1d	nulz	noz	-gretz	.	.	.	.	1d	1. Plus	3. Sur	4. Re-
.	.	.	.	.	.	.	.	4e\	.	.	.	.	.	.	.
.	.	.	.	.	.	.	.	4d\	.	.	.	.	.	.	.
=4	=4	=4	=4	=4	=4	=4	=4	=4	=4	=4	=4	=4	=4	=4	=4
0r	.	.	.	2d\]	.	.	.	1d	.	.	.	2f/	nulz	noz	-gretz
.	.	.	.	4c\	.	.	.	.	.	.	.	2g/	.	.	.
.	.	.	.	4B\	.	.	.	.	.	.	.	.	.	.	.
.	.	.	.	2c\	.	.	.	1r	.	.	.	1a	re-	pre-	plus
.	.	.	.	2d\	re-	pre-	plus	.	.	.	.	.	.	.	.
=5	=5	=5	=5	=5	=5	=5	=5	=5	=5	=5	=5	=5	=5	=5	=5
1G	grans,	et	ne	0G	-gretz,	-aux	nulz	1d	grans,	et	ne	1.b-i	-gretz,	-aux	nulz
2G\	mo-	jar-	nous	.	.	.	.	2d\	mo-	jar-	nous	.	.	.	.
2G\	-yens	-di-	vien-	.	.	.	.	2d\	-yens	-di-	vien-	4a/	.	.	.
.	.	.	.	.	.	.	.	.	.	.	.	4g/	.	.	.
=6	=6	=6	=6	=6	=6	=6	=6	=6	=6	=6	=6	=6	=6	=6	=6
1G	ne	-netz	-nent	0r	.	.	.	2B\	ne	-netz	-nent	1g	.	.	.
.	.	.	.	.	.	.	.	1e	me-	her-	a-	.	.	.	.
1F	me-	her-	a-	.	.	.	.	.	.	.	.	1r	.	.	.
.	.	.	.	.	.	.	.	2d\	.	.	.	.	.	.	.
=7	=7	=7	=7	=7	=7	=7	=7	=7	=7	=7	=7	=7	=7	=7	=7
0E	-nuz,	-bus	-prés	1c	grans,	et	ne	0e	-nuz,	-bus	-prés	1g	grans,	et	ne
.	.	.	.	2c\	mo-	jar-	nous	.	.	.	.	2g/	mo-	jar-	nous
.	.	.	.	2c\	-yens	-di-	vien-	.	.	.	.	2g/	-yens	-di-	vien-
=8	=8	=8	=8	=8	=8	=8	=8	=8	=8	=8	=8	=8	=8	=8	=8
1r	.	.	.	1c	ne	-netz	-nent	1r	.	.	.	2e/	ne	-netz	-nent
.	.	.	.	.	.	.	.	.	.	.	.	1a	me-	her-	a-
1E	De	Luy-	Nostre	1B	me-	her-	a-	1e	De	Luy-	Nostre	.	.	.	.
.	.	.	.	.	.	.	.	.	.	.	.	2g/	.	.	.
=9	=9	=9	=9	=9	=9	=9	=9	=9	=9	=9	=9	=9	=9	=9	=9
1F	jo-	-ra	eure	1A	-nuz,	-bus	-prés	1c	jo-	-ra	eure	1a	-nuz,	-bus	-prés
1F	-ye	Phe-	est	2r	.	.	.	1d	-ye	Phe-	est	2r	.	.	.
.	.	.	.	2A/	De	Luy-	Nostre	.	.	.	.	2a/	De	Luy-	Nostre
=10	=10	=10	=10	=10	=10	=10	=10	=10	=10	=10	=10	=10	=10	=10	=10
1E	nudz	-bus	pres,	1c	jo-	-ra	eure	2.e\	nudz	-bus	pres,	1g	jo-	-ra	eure
.	.	.	.	.	.	.	.	4c\	.	.	.	.	.	.	.
2r	.	.	.	1B	-ye	Phe-	est	2d\	.	.	.	1g	-ye	Phe-	est
2E\	ne	de	ve-	.	.	.	.	2e\	.	.	.	.	.	.	.
=11	=11	=11	=11	=11	=11	=11	=11	=11	=11	=11	=11	=11	=11	=11	=11
1.F	so-	ses	-nant	0A	nudz	-bus	pres,	1c	.	.	.	1.a	nudz	-bus	pres,
.	.	.	.	.	.	.	.	2r	.	.	.	.	.	.	.
2E\	-yent	rais	des	.	.	.	.	2c\	ne	de	ve-	2g/	ne	de	ve-
=12	=12	=12	=12	=12	=12	=12	=12	=12	=12	=12	=12	=12	=12	=12	=12
2D\	ditz	en-	cieulx	0r	.	.	.	1d	so-	ses	-nant	2f/	so-	ses	-nant
2C/	.	.	.	.	.	.	.	.	.	.	.	2e/	.	.	.
1BB	n'es-	-no-	be-	.	.	.	.	1d	-yent	rais	des	1d	-yent	rais	des
=13	=13	=13	=13	=13	=13	=13	=13	=13	=13	=13	=13	=13	=13	=13	=13
0AA	-criptz.	-bliz;	-niz.	1r	.	.	.	1e	ditz	en-	cieulx	2.c/	ditz	en-	cieulx
.	.	.	.	.	.	.	.	.	.	.	.	4d/	.	.	.
.	.	.	.	1A	ne	de	ve-	1c	n'es-	-no-	be-	2e/	.	.	.
.	.	.	.	.	.	.	.	.	.	.	.	[2f/	n'es-	-no-	be-
=14	=14	=14	=14	=14	=14	=14	=14	=14	=14	=14	=14	=14	=14	=14	=14
0r	.	.	.	1.B-	so-	ses	-nant	1.d	.	.	.	2f/]	.	.	.
.	.	.	.	.	.	.	.	.	.	.	.	4e/	.	.	.
.	.	.	.	.	.	.	.	.	.	.	.	4d/	.	.	.
.	.	.	.	.	.	.	.	.	.	.	.	2.g/	.	.	.
.	.	.	.	2A/	-yent	rais	des	2c\	.	.	.	.	.	.	.
.	.	.	.	.	.	.	.	.	.	.	.	4f/	.	.	.
=15	=15	=15	=15	=15	=15	=15	=15	=15	=15	=15	=15	=15	=15	=15	=15
0r	.	.	.	2G/	ditz	en-	cieulx	4B\	.	.	.	4e/	.	.	.
.	.	.	.	.	.	.	.	4A/	.	.	.	4d/	.	.	.
.	.	.	.	2F/	.	.	.	1A	.	.	.	1d	.	.	.
.	.	.	.	1E	n'es-	-no-	be-	.	.	.	.	.	.	.	.
.	.	.	.	.	.	.	.	2G/	.	.	.	2c#i/	.	.	.
=16	=16	=16	=16	=16	=16	=16	=16	=16	=16	=16	=16	=16	=16	=16	=16
1r	.	.	.	0D	-criptz.	-bliz;	-niz.	1A	-criptz.	-bliz;	-niz.	2.d/	-criptz.	-bliz;	-niz.
.	.	.	.	.	.	.	.	.	.	.	.	4e/	.	.	.
1D	O-	Ain-	Voi-	.	.	.	.	1d	.	.	.	4f/	.	.	.
.	.	.	.	.	.	.	.	.	.	.	.	4g/	.	.	.
.	.	.	.	.	.	.	.	.	.	.	.	[2a/	.	.	.
=17	=17	=17	=17	=17	=17	=17	=17	=17	=17	=17	=17	=17	=17	=17	=17
1F	-res	-sy	-sent	1A	O-	Ain-	Voi-	1c	.	.	.	4a/]	.	.	.
.	.	.	.	.	.	.	.	.	.	.	.	4b\	.	.	.
.	.	.	.	.	.	.	.	.	.	.	.	1cc	.	.	.
1F	re-	crois-	ail-	1c	-res	-sy	-sent	1A	.	.	.	.	.	.	.
.	.	.	.	.	.	.	.	.	.	.	.	4b\	.	.	.
.	.	.	.	.	.	.	.	.	.	.	.	4a/	.	.	.
=18	=18	=18	=18	=18	=18	=18	=18	=18	=18	=18	=18	=18	=18	=18	=18
1E	-vient	-tront	-leurs	1c	re-	crois-	ail-	1e	.	.	.	0g	.	.	.
2r	.	.	.	1B	-vient	-tront	-leurs	1r	.	.	.	.	.	.	.
2E\	le	noz	re-	.	.	.	.	.	.	.	.	.	.	.	.
=19	=19	=19	=19	=19	=19	=19	=19	=19	=19	=19	=19	=19	=19	=19	=19
2G\	bon	bou-	-gretz	2r	.	.	.	1d	O-	Ain-	Voi-	1r	.	.	.
2G\	temps	-ton-	plus	2B\	le	noz	re-	.	.	.	.	.	.	.	.
2D\	Sa-	-ceaux	durs	2d\	bon	bou-	-gretz	1f	-res	-sy	-sent	1a	O-	Ain-	Voi-
[2F\	-tur-	bar-	que	2d\	temps	-ton-	plus	.	.	.	.	.	.	.	.
=20	=20	=20	=20	=20	=20	=20	=20	=20	=20	=20	=20	=20	=20	=20	=20
4F\]	.	.	.	1A	Sa-	-ceaux	durs	1f	re-	crois-	ail-	1cc	-res	-sy	-sent
4G\	.	.	.	.	.	.	.	.	.	.	.	.	.	.	.
2.A\	.	.	.	.	.	.	.	.	.	.	.	.	.	.	.
.	.	.	.	2.c\	-tur-	bar-	que	1e	-vient	-tront	-leurs	1cc	re-	crois-	ail-
4G\	.	.	.	.	.	.	.	.	.	.	.	.	.	.	.
2A\	.	.	.	.	.	.	.	.	.	.	.	.	.	.	.
.	.	.	.	4d\	.	.	.	.	.	.	.	.	.	.	.
=21	=21	=21	=21	=21	=21	=21	=21	=21	=21	=21	=21	=21	=21	=21	=21
0E	-nus	-bus	gretz,	1.e	-nus	-bus	gretz,	2r	.	.	.	1b	-vient	-tront	-leurs
.	.	.	.	.	.	.	.	2e\	le	noz	re-	.	.	.	.
.	.	.	.	.	.	.	.	2g\	bon	bou-	-gretz	2r	.	.	.
.	.	.	.	4d\	.	.	.	2g\	temps	-ton-	plus	2b\	le	noz	re-
.	.	.	.	4c\	.	.	.	.	.	.	.	.	.	.	.
=22	=22	=22	=22	=22	=22	=22	=22	=22	=22	=22	=22	=22	=22	=22	=22
1r	.	.	.	2B\	.	.	.	1d	Sa-	-ceaux	durs	2dd\	bon	bou-	-gretz
.	.	.	.	2G/	.	.	.	.	.	.	.	2dd\	temps	-ton-	plus
1D	Ou	Sans	Fiers	1d	.	.	.	1f	-tur-	bar-	que	1a	Sa-	-ceaux	durs
=23	=23	=23	=23	=23	=23	=23	=23	=23	=23	=23	=23	=23	=23	=23	=23
1A	peu	nulz	et	2r	.	.	.	2.e\	-nus	-bus	gretz,	1.cc	-tur-	bar-	que
.	.	.	.	2A/	Ou	Sans	Fiers	.	.	.	.	.	.	.	.
.	.	.	.	.	.	.	.	4c\	.	.	.	.	.	.	.
1A	con-	a-	ai-	1e	peu	nulz	et	1c	.	.	.	.	.	.	.
.	.	.	.	.	.	.	.	.	.	.	.	4b\	.	.	.
.	.	.	.	.	.	.	.	.	.	.	.	4a/	.	.	.
=24	=24	=24	=24	=24	=24	=24	=24	=24	=24	=24	=24	=24	=24	=24	=24
1.G	-gnuz	-bus	-gretz,	1e	con-	a-	ai-	1r	.	.	.	0b	-nus	-bus	gretz,
.	.	.	.	[1d	-gnuz	-bus	-gretz,	1d	Ou	Sans	Fiers	.	.	.	.
4F\	.	.	.	.	.	.	.	.	.	.	.	.	.	.	.
4E\	.	.	.	.	.	.	.	.	.	.	.	.	.	.	.
=25	=25	=25	=25	=25	=25	=25	=25	=25	=25	=25	=25	=25	=25	=25	=25
0D	.	.	.	2d\]	.	.	.	1f	peu	nulz	et	1r	.	.	.
.	.	.	.	4c\	.	.	.	.	.	.	.	.	.	.	.
.	.	.	.	4B\	.	.	.	.	.	.	.	.	.	.	.
.	.	.	.	2A/	.	.	.	1f	con-	a-	ai-	1a	Ou	Sans	Fiers
.	.	.	.	2d\	.	.	.	.	.	.	.	.	.	.	.
=26	=26	=26	=26	=26	=26	=26	=26	=26	=26	=26	=26	=26	=26	=26	=26
2r	.	.	.	2c\	.	.	.	2.e\	-gnuz	-bus	-gretz,	2.cc\	peu	nulz	et
2A\	fu-	et	et	2A/	.	.	.	.	.	.	.	.	.	.	.
.	.	.	.	.	.	.	.	4c\	.	.	.	4a/	con-	a-	ai-
2A\	-rent	dan-	char-	1e	.	.	.	2c\	.	.	.	2cc\	-gnuz	-bus	-gretz,
2E\	plain-	-ge-	-chent	.	.	.	.	2e\	fu-	et	et	[2b\	fu-	et	et
=27	=27	=27	=27	=27	=27	=27	=27	=27	=27	=27	=27	=27	=27	=27	=27
1G	-tifz	-reux	au-	2r	.	.	.	2d\	-rent	dan-	char-	4b\]	.	.	.
.	.	.	.	.	.	.	.	.	.	.	.	4g/	-rent	dan-	char-
.	.	.	.	2d\	fu-	et	et	2B\	plain-	-ge-	-chent	2b\	plain-	-ge-	-chent
1F	et	trou-	-tres	2d\	-rent	dan-	char-	2d\	-tifz	-reux	au-	2a/	-tifz	-reux	au-
.	.	.	.	2A/	plain-	-ge-	-chent	2c\	et	trou-	-tres	[2cc\	et	trou-	-tres
=28	=28	=28	=28	=28	=28	=28	=28	=28	=28	=28	=28	=28	=28	=28	=28
0E	cris,	-bliz,	nidz,	1c	-tifz	-reux	au-	1e	cris,	-bliz,	nidz,	2cc\]	.	.	.
.	.	.	.	.	.	.	.	.	.	.	.	4b\	.	.	.
.	.	.	.	.	.	.	.	.	.	.	.	4a/	.	.	.
.	.	.	.	1B	et	trou-	-tres	2r	.	.	.	4g#i/	.	.	.
.	.	.	.	.	.	.	.	.	.	.	.	4a/	.	.	.
.	.	.	.	.	.	.	.	2E/	fu-	et	et	4b\	.	.	.
.	.	.	.	.	.	.	.	.	.	.	.	4g#i/	.	.	.
=29	=29	=29	=29	=29	=29	=29	=29	=29	=29	=29	=29	=29	=29	=29	=29
2r	.	.	.	0A	cris,	-bliz,	nidz,	2F/	-rent	dan-	char-	1a	cris,	-bliz,	nidz,
2D\	fu-	et	et	.	.	.	.	2D/	plain-	-ge-	-chent	.	.	.	.
2D\	-rent	dan-	char-	.	.	.	.	1F	-tifz	-reux	au-	2r	.	.	.
2AA/	plain-	-ge-	-chent	.	.	.	.	.	.	.	.	2a/	fu-	et	et
=30	=30	=30	=30	=30	=30	=30	=30	=30	=30	=30	=30	=30	=30	=30	=30
1C	-tifz	-reux	au-	2r	.	.	.	1E	et	trou-	-tres	2g/	-rent	dan-	char-
.	.	.	.	2G/	fu-	et	et	.	.	.	.	2e/	plain-	-ge-	-chent
1BB	-tifz	-reux	au-	2G/	-rent	dan-	char-	1D	.	.	.	2g/	-tifz	-reux	au-
.	.	.	.	2D/	plain-	-ge-	-chent	.	.	.	.	[2f/	et	trou-	-tres
=31	=31	=31	=31	=31	=31	=31	=31	=31	=31	=31	=31	=31	=31	=31	=31
0AA	cris.	-bliz.	nidz.	1F	-tifz	-reux	au-	0A	cris.	-bliz.	nidz.	2f/]	.	.	.
.	.	.	.	.	.	.	.	.	.	.	.	4e/	.	.	.
.	.	.	.	.	.	.	.	.	.	.	.	4d/	.	.	.
.	.	.	.	1E	et	trou-	-tres	.	.	.	.	4c#i/	.	.	.
.	.	.	.	.	.	.	.	.	.	.	.	4d/	.	.	.
.	.	.	.	.	.	.	.	.	.	.	.	4e/	.	.	.
.	.	.	.	.	.	.	.	.	.	.	.	4c#i/	.	.	.
=32	=32	=32	=32	=32	=32	=32	=32	=32	=32	=32	=32	=32	=32	=32	=32
1DN	2. Long	&	5. Se	0DN	cris.	-bliz.	nidz.	1r	.	.	.	0dN	cris.	-bliz.	nidz.
1F	temps	.	Mars	.	.	.	.	1AN	2. Long	&	5. Se	.	.	.	.
=33	=33	=33	=33	=33	=33	=33	=33	=33	=33	=33	=33	=33	=33	=33	=33
1E	nous	.	nous	1r	.	.	.	1c	temps	.	Mars	0r	.	.	.
1D	ont	.	tolt	1d	2. Long	&	5. Se	1B	nous	.	nous	.	.	.	.
=34	=34	=34	=34	=34	=34	=34	=34	=34	=34	=34	=34	=34	=34	=34	=34
0r	.	.	.	1f	temps	.	Mars	0A	ont	.	tolt	1a	2. Long	&	5. Se
.	.	.	.	1e	nous	.	nous	.	.	.	.	1cc	temps	.	Mars
=35	=35	=35	=35	=35	=35	=35	=35	=35	=35	=35	=35	=35	=35	=35	=35
2r	.	.	.	1.d	ont	.	tolt	1r	.	.	.	1b	nous	.	nous
2D\	tous	.	la	.	.	.	.	.	.	.	.	.	.	.	.
2F\	mal-	.	blan-	.	.	.	.	2r	.	.	.	1a	ont	.	tolt
2F\	-heurs	.	-che	4c\	.	.	.	2A/	tous	.	la	.	.	.	.
.	.	.	.	4B\	.	.	.	.	.	.	.	.	.	.	.
=36	=36	=36	=36	=36	=36	=36	=36	=36	=36	=36	=36	=36	=36	=36	=36
1F	in-	.	fleur	1A	.	.	.	2c\	mal-	.	blan-	0r	.	.	.
.	.	.	.	.	.	.	.	2c\	-heurs	.	-che	.	.	.	.
1E	-fi-	.	de	1r	.	.	.	1c	in-	.	fleur	.	.	.	.
=37	=37	=37	=37	=37	=37	=37	=37	=37	=37	=37	=37	=37	=37	=37	=37
0D	-niz	.	lis	2r	.	.	.	1B	-fi-	.	de	1r	.	.	.
.	.	.	.	2d\	tous	.	la	.	.	.	.	.	.	.	.
.	.	.	.	2f\	mal-	.	blan-	2A/	-niz	.	lis	2r	.	.	.
.	.	.	.	2f\	-heurs	.	-che	[2F/	.	.	.	2a/	tous	.	la
=38	=38	=38	=38	=38	=38	=38	=38	=38	=38	=38	=38	=38	=38	=38	=38
0r	.	.	.	1f	in-	.	fleur	4F/]	.	.	.	2cc\	mal-	.	blan-
.	.	.	.	.	.	.	.	4G/	.	.	.	.	.	.	.
.	.	.	.	.	.	.	.	4A/	.	.	.	2cc\	-heurs	.	-che
.	.	.	.	.	.	.	.	4B\	.	.	.	.	.	.	.
.	.	.	.	1e	-fi-	.	de	2c\	.	.	.	1cc	in-	.	fleur
.	.	.	.	.	.	.	.	2A/	.	.	.	.	.	.	.
=39	=39	=39	=39	=39	=39	=39	=39	=39	=39	=39	=39	=39	=39	=39	=39
1r	.	.	.	0d	-niz	.	lis	2B\	.	.	.	1b	-fi-	.	de
.	.	.	.	.	.	.	.	2G/	.	.	.	.	.	.	.
1D	Ba-	.	Sans	.	.	.	.	1d	.	.	.	1a	-niz	.	lis
=40	=40	=40	=40	=40	=40	=40	=40	=40	=40	=40	=40	=40	=40	=40	=40
1F	-tuz,	.	nulz	0r	.	.	.	2r	.	.	.	0r	.	.	.
.	.	.	.	.	.	.	.	2A/	Ba-	.	Sans	.	.	.	.
1E	pug-	.	de-	.	.	.	.	1c	-tuz,	.	nulz	.	.	.	.
=41	=41	=41	=41	=41	=41	=41	=41	=41	=41	=41	=41	=41	=41	=41	=41
0D	-niz,	.	-lictz	1d	Ba-	.	Sans	1B	pug-	.	de-	1r	.	.	.
.	.	.	.	1f	-tuz,	.	nulz	[1A	-niz,	.	-lictz	1a	Ba-	.	Sans
=42	=42	=42	=42	=42	=42	=42	=42	=42	=42	=42	=42	=42	=42	=42	=42
0r	.	.	.	1e	pug-	.	de-	1A]	.	.	.	1cc	-tuz,	.	nulz
.	.	.	.	[1d	-niz,	.	-lictz	1r	.	.	.	1b	pug-	.	de-
=43	=43	=43	=43	=43	=43	=43	=43	=43	=43	=43	=43	=43	=43	=43	=43
1r	.	.	.	2d\]	.	.	.	2r	.	.	.	0a	-niz,	.	-lictz
.	.	.	.	4c\	.	.	.	2d\	et	.	sy	.	.	.	.
.	.	.	.	4B\	.	.	.	.	.	.	.	.	.	.	.
1D	et	.	sy	1A	.	.	.	2f\	fais	.	nous	.	.	.	.
.	.	.	.	.	.	.	.	2f\	po-	.	don-	.	.	.	.
=44	=44	=44	=44	=44	=44	=44	=44	=44	=44	=44	=44	=44	=44	=44	=44
1.A	fais	.	nous	0r	.	.	.	1f	-vres,	.	-ne	2r	.	.	.
.	.	.	.	.	.	.	.	.	.	.	.	2cc\	et	.	sy
.	.	.	.	.	.	.	.	2.e\	mai-	.	Ve-	2cc\	fais	.	nous
2A\	po-	.	don-	.	.	.	.	.	.	.	.	2cc\	po-	.	don-
.	.	.	.	.	.	.	.	4c\	.	.	.	.	.	.	.
=45	=45	=45	=45	=45	=45	=45	=45	=45	=45	=45	=45	=45	=45	=45	=45
1G	-vres,	.	-ne	1r	.	.	.	2e\	.	.	.	1b	-vres,	.	-ne
.	.	.	.	.	.	.	.	2.d\	.	.	.	.	.	.	.
1F	mai-	.	Ve-	1A	et	.	sy	.	.	.	.	1a	mai-	.	Ve-
.	.	.	.	.	.	.	.	4c\	.	.	.	.	.	.	.
.	.	.	.	.	.	.	.	2A/	.	.	.	.	.	.	.
=46	=46	=46	=46	=46	=46	=46	=46	=46	=46	=46	=46	=46	=46	=46	=46
1.E	-gretz,	.	-nus,	1.e	fais	.	nous	2c\	-gretz,	.	-nus,	2.g/	-gretz,	.	-nus,
.	.	.	.	.	.	.	.	1B	.	.	.	.	.	.	.
.	.	.	.	.	.	.	.	.	.	.	.	4a/	.	.	.
.	.	.	.	.	.	.	.	.	.	.	.	2b\	.	.	.
2C/	.	.	.	2e\	po-	.	don-	2A/	et	.	sy	2cc\	.	.	.
=47	=47	=47	=47	=47	=47	=47	=47	=47	=47	=47	=47	=47	=47	=47	=47
1D	.	.	.	2.d\	-vres,	.	-ne	1f	fais	.	nous	4b\	.	.	.
.	.	.	.	.	.	.	.	.	.	.	.	4a/	.	.	.
.	.	.	.	.	.	.	.	.	.	.	.	1a	.	.	.
.	.	.	.	4c\	.	.	.	.	.	.	.	.	.	.	.
1E	.	.	.	1B	mai-	.	Ve-	1e	po-	.	don-	.	.	.	.
.	.	.	.	.	.	.	.	.	.	.	.	2g#i/	.	.	.
=48	=48	=48	=48	=48	=48	=48	=48	=48	=48	=48	=48	=48	=48	=48	=48
1AA	.	.	.	0A	-gretz,	.	-nus,	2.c\	-vres,	.	-ne	1a	.	.	.
.	.	.	.	.	.	.	.	4d\	.	.	.	.	.	.	.
1AA	et	.	sy	.	.	.	.	2e\	.	.	.	2r	.	.	.
.	.	.	.	.	.	.	.	2c\	.	.	.	2e/	et	.	sy
=49	=49	=49	=49	=49	=49	=49	=49	=49	=49	=49	=49	=49	=49	=49	=49
1.D	fais	.	nous	0r	.	.	.	2d\	.	.	.	1.f	fais	.	nous
.	.	.	.	.	.	.	.	4D/	mai-	.	Ve-	.	.	.	.
.	.	.	.	.	.	.	.	4E/	.	.	.	.	.	.	.
.	.	.	.	.	.	.	.	4F/	.	.	.	.	.	.	.
.	.	.	.	.	.	.	.	4G/	.	.	.	.	.	.	.
2D\	po-	.	don-	.	.	.	.	4A/	.	.	.	2f/	po-	.	don-
.	.	.	.	.	.	.	.	4B\	.	.	.	.	.	.	.
=50	=50	=50	=50	=50	=50	=50	=50	=50	=50	=50	=50	=50	=50	=50	=50
1C	-vres,	.	-ne	1r	.	.	.	2c\	-gretz,	.	-nus,	1e	-vres,	.	-ne
.	.	.	.	.	.	.	.	2.G/	.	.	.	.	.	.	.
1BB	mai-	.	Ve-	1D	et	.	sy	.	.	.	.	1d	mai-	.	Ve-
.	.	.	.	.	.	.	.	4F/	.	.	.	.	.	.	.
.	.	.	.	.	.	.	.	2D/	.	.	.	.	.	.	.
=51	=51	=51	=51	=51	=51	=51	=51	=51	=51	=51	=51	=51	=51	=51	=51
1.AA	-gretz,	.	-nus,	1.A	fais	.	nous	2E/	.	.	.	2.c/	-gretz,	.	-nus
.	.	.	.	.	.	.	.	1c	mai-	.	Ve-	.	.	.	.
.	.	.	.	.	.	.	.	.	.	.	.	4d/	.	.	.
.	.	.	.	.	.	.	.	.	.	.	.	2e/	.	.	.
2FF/	.	.	.	2A/	po-	.	don-	2A/	.	.	.	2f/	.	.	.
=52	=52	=52	=52	=52	=52	=52	=52	=52	=52	=52	=52	=52	=52	=52	=52
1GG	.	.	.	2.G/	-vres,	.	-ne	1B-i	-gretz,	.	-nus	4e/	.	.	.
.	.	.	.	.	.	.	.	.	.	.	.	4d/	.	.	.
.	.	.	.	.	.	.	.	.	.	.	.	1d	.	.	.
.	.	.	.	4F/	.	.	.	.	.	.	.	.	.	.	.
1AA	.	.	.	1E	mai-	.	Ve-	1A	.	.	.	.	.	.	.
.	.	.	.	.	.	.	.	.	.	.	.	2c#i/	.	.	.
=53	=53	=53	=53	=53	=53	=53	=53	=53	=53	=53	=53	=53	=53	=53	=53
1r	.	.	.	0D	-gretz,	.	-nus,	2F/	.	.	.	2d/	.	.	.
.	.	.	.	.	.	.	.	2D/	.	.	.	1a	Mais	.	Ro-
1D	-gretz,	.	-nus,	.	.	.	.	1d	Mais	.	Ro-	.	.	.	.
.	.	.	.	.	.	.	.	.	.	.	.	2f/	.	.	.
=54	=54	=54	=54	=54	=54	=54	=54	=54	=54	=54	=54	=54	=54	=54	=54
1E	main-	.	-se	0r	.	.	.	2c\	main-	.	-se	1g	main-	.	-se
.	.	.	.	.	.	.	.	2B\	.	.	.	.	.	.	.
1F	-te-	.	ver-	.	.	.	.	1A	-te-	.	ver-	1a	-te-	.	ver-
=55	=55	=55	=55	=55	=55	=55	=55	=55	=55	=55	=55	=55	=55	=55	=55
0G	-nant,	.	-meille,	1r	.	.	.	1G	-nant,	.	-meille,	2d/	-nant,	.	-meille,
.	.	.	.	.	.	.	.	.	.	.	.	1dd	mais	.	ro-
.	.	.	.	1G	Mais	.	Ro-	2r	.	.	.	.	.	.	.
.	.	.	.	.	.	.	.	2g\	d'es-	.	a-	2b\	.	.	.
=56	=56	=56	=56	=56	=56	=56	=56	=56	=56	=56	=56	=56	=56	=56	=56
1r	.	.	.	1A	main-	.	-se	2f\	-poir	.	-mou-	1cc	main-	.	-se
.	.	.	.	.	.	.	.	2e\	.	.	.	.	.	.	.
1G	d'es-	.	a-	1B	-te-	.	ver-	1d	som-	.	-reu-	1dd	-te-	.	ver-
=57	=57	=57	=57	=57	=57	=57	=57	=57	=57	=57	=57	=57	=57	=57	=57
2.c\	-poir	.	-mou-	0c	-nant,	.	-meille,	2c\	-mes	.	-se	2g/	-nant	.	-meille
.	.	.	.	.	.	.	.	4A/	gar-	.	de	1cc	d'es-	.	a-
4B\	.	.	.	.	.	.	.	4B\	.	.	.	.	.	.	.
2A\	.	.	.	.	.	.	.	4c\	.	.	.	.	.	.	.
.	.	.	.	.	.	.	.	4d\	.	.	.	.	.	.	.
2G\	som-	.	-reu-	.	.	.	.	[2e\	.	.	.	2b\	.	.	.
=58	=58	=58	=58	=58	=58	=58	=58	=58	=58	=58	=58	=58	=58	=58	=58
1F	-mes	.	-se	1r	.	.	.	2e\]	.	.	.	1a	-poir	.	-mou-
.	.	.	.	.	.	.	.	1d	.	.	.	.	.	.	.
1E	gar-	.	de	1c	d'es-	.	a-	.	.	.	.	2g/	som-	.	-reu-
.	.	.	.	.	.	.	.	2c\	.	.	.	2e/	.	.	.
=59	=59	=59	=59	=59	=59	=59	=59	=59	=59	=59	=59	=59	=59	=59	=59
0D	-niz.	.	pris	2.f\	-poir	.	-mou-	0d	-niz.	.	pris	2f/	-mes	.	-se
.	.	.	.	.	.	.	.	.	.	.	.	4d/	gar-	.	de
.	.	.	.	4e\	.	.	.	.	.	.	.	4e/	.	.	.
.	.	.	.	2d\	.	.	.	.	.	.	.	4f/	.	.	.
.	.	.	.	.	.	.	.	.	.	.	.	4g/	.	.	.
.	.	.	.	2c\	som-	.	-reu-	.	.	.	.	[2a/	.	.	.
=60	=60	=60	=60	=60	=60	=60	=60	=60	=60	=60	=60	=60	=60	=60	=60
1r	.	.	.	1B	-mes	.	-se	1r	.	.	.	2a/]	.	.	.
.	.	.	.	.	.	.	.	.	.	.	.	1g	.	.	.
1D	Joinctz	.	Dont	1A	gar-	.	de	1d	Joinctz	.	Dont	.	.	.	.
.	.	.	.	.	.	.	.	.	.	.	.	2f#i/	.	.	.
=61	=61	=61	=61	=61	=61	=61	=61	=61	=61	=61	=61	=61	=61	=61	=61
1E	et	.	noz	1G	-niz.	.	pris	1B	et	.	noz	1g	-niz.	.	pris
1E	u-	.	es-	2r	.	.	.	1B	u-	.	es-	2r	.	.	.
.	.	.	.	2G/	Joinctz	.	Dont	.	.	.	.	2g/	Joinctz	.	Dont
=62	=62	=62	=62	=62	=62	=62	=62	=62	=62	=62	=62	=62	=62	=62	=62
0AA	-niz	.	-pritz	1A	et	.	noz	1c	-niz	.	-pritz	1e	et	.	noz
.	.	.	.	1A	u-	.	es-	2r	.	.	.	1e	u-	.	es-
.	.	.	.	.	.	.	.	2c\	n'a-	.	n'au-	.	.	.	.
=63	=63	=63	=63	=63	=63	=63	=63	=63	=63	=63	=63	=63	=63	=63	=63
1r	.	.	.	0D	-niz	.	-pritz	2.d\	-yons	.	-ront	1f	-niz	.	-pritz
.	.	.	.	.	.	.	.	4c\	.	.	.	.	.	.	.
1A	n'a-	.	n'au-	.	.	.	.	2d\	.	.	.	2r	.	.	.
.	.	.	.	.	.	.	.	2A/	.	.	.	2f/	n'a-	.	n'au-
=64	=64	=64	=64	=64	=64	=64	=64	=64	=64	=64	=64	=64	=64	=64	=64
2.G\	-yons	.	-ront	0r	.	.	.	2B\	.	.	.	1.g	-yons	.	-ront
.	.	.	.	.	.	.	.	4E/	plus	.	re-	.	.	.	.
4F\	.	.	.	.	.	.	.	4F/	.	.	.	.	.	.	.
2E\	.	.	.	.	.	.	.	4G/	.	.	.	.	.	.	.
.	.	.	.	.	.	.	.	4A/	.	.	.	.	.	.	.
2D\	plus	.	re-	.	.	.	.	[2B\	.	.	.	2f/	plus	.	re-
=65	=65	=65	=65	=65	=65	=65	=65	=65	=65	=65	=65	=65	=65	=65	=65
2C/	nulz	.	-gretz	1r	.	.	.	2B\]	.	.	.	2e/	nulz	.	-gretz
2AA/	.	.	.	.	.	.	.	1A	nulz	.	-gretz	2c/	.	.	.
1BB	re-	.	plus	1d	n'a-	.	n'au-	.	.	.	.	2d/	.	.	.
.	.	.	.	.	.	.	.	2G#i/	re-	.	plus	2B/	.	.	.
=66	=66	=66	=66	=66	=66	=66	=66	=66	=66	=66	=66	=66	=66	=66	=66
0AA	-gretz,	.	nultz,	2.c\	-yons	.	-ront	2A/	-gretz,	.	nultz,	2c/	.	.	.
.	.	.	.	.	.	.	.	2.c\	plus	.	re-	4A/	.	.	.
.	.	.	.	4B\	.	.	.	.	.	.	.	4B/	.	.	.
.	.	.	.	2A/	.	.	.	.	.	.	.	4c/	.	.	.
.	.	.	.	.	.	.	.	4A/	.	.	.	4d/	.	.	.
.	.	.	.	2G/	plus	.	re-	[2B\	nulz	.	-gretz	[2e/	.	.	.
=67	=67	=67	=67	=67	=67	=67	=67	=67	=67	=67	=67	=67	=67	=67	=67
0r	.	.	.	2F/	nulz	.	-gretz	2B\]	.	.	.	2e/]	.	.	.
.	.	.	.	2D/	.	.	.	1A	.	.	.	1d	.	.	.
.	.	.	.	1E	re-	.	plus	.	.	.	.	.	.	.	.
.	.	.	.	.	.	.	.	2G/	re-	.	plus	2c#i/	re-	.	plus
=68	=68	=68	=68	=68	=68	=68	=68	=68	=68	=68	=68	=68	=68	=68	=68
1r	.	.	.	0D	-gretz,	.	nultz,	1A	-gretz,	.	nultz,	1d	-gretz,	.	nultz,
1A	n'a-	.	n'au-	.	.	.	.	2r	.	.	.	1f	n'a-	.	n'au-
.	.	.	.	.	.	.	.	2A/	n'a-	.	n'au-	.	.	.	.
=69	=69	=69	=69	=69	=69	=69	=69	=69	=69	=69	=69	=69	=69	=69	=69
2.G\	-yons	.	-ront	0r	.	.	.	2B\	-yons	.	-ront	1.g	-yons	.	-ront
.	.	.	.	.	.	.	.	4E/	plus	.	re-	.	.	.	.
4F\	.	.	.	.	.	.	.	4F/	.	.	.	.	.	.	.
2E\	.	.	.	.	.	.	.	4G/	.	.	.	.	.	.	.
.	.	.	.	.	.	.	.	4A/	.	.	.	.	.	.	.
2D\	plus	.	re-	.	.	.	.	[2B\	nulz	.	-gretz	2f/	plus	.	re-
=70	=70	=70	=70	=70	=70	=70	=70	=70	=70	=70	=70	=70	=70	=70	=70
2C/	nulz	.	-gretz	1r	.	.	.	2B\]	.	.	.	2e/	nulz	.	-gretz
2AA/	.	.	.	.	.	.	.	1A	re-	.	plus	2c/	.	.	.
1BB	re-	.	plus	1d	n'a-	.	n'au-	.	.	.	.	2d/	.	.	.
.	.	.	.	.	.	.	.	2G#i/	.	.	.	2B/	.	.	.
=71	=71	=71	=71	=71	=71	=71	=71	=71	=71	=71	=71	=71	=71	=71	=71
[0AA	-gretz.	.	nultz.	2.c\	-yons	.	-ront	[0Al	-gretz.	.	nultz.	2c/	.	.	.
.	.	.	.	.	.	.	.	.	.	.	.	4A/	.	.	.
.	.	.	.	4B\	.	.	.	.	.	.	.	4B/	.	.	.
.	.	.	.	2A/	.	.	.	.	.	.	.	4c/	.	.	.
.	.	.	.	.	.	.	.	.	.	.	.	4d/	.	.	.
.	.	.	.	2G/	plus	.	re-	.	.	.	.	[2e/	.	.	.
=72	=72	=72	=72	=72	=72	=72	=72	=72	=72	=72	=72	=72	=72	=72	=72
0AA]	.	.	.	2F/	nulz	.	-gretz	0A_	.	.	.	2e/]	.	.	.
.	.	.	.	2D/	.	.	.	.	.	.	.	1d	re-	.	plus
.	.	.	.	1E	re-	.	plus	.	.	.	.	.	.	.	.
.	.	.	.	.	.	.	.	.	.	.	.	2c#i/	.	.	.
=73	=73	=73	=73	=73	=73	=73	=73	=73	=73	=73	=73	=73	=73	=73	=73
0Dl	.	.	.	0Dl	-gretz.	.	nultz.	0A]	.	.	.	0dl	-gretz.	.	nultz.
==	==	==	==	==	==	==	==	==	==	==	==	==	==	==	==
*-	*-	*-	*-	*-	*-	*-	*-	*-	*-	*-	*-	*-	*-	*-	*-
!!!RDF**kern: l=long note in original notation
!!!RDF**kern: i=editorial accidental
!!!ENC: Will Watson 17/08/2011
!!!END: 2011/08/17/
!!!EED: Jesse Rodin
!!!EEV: 2011/09/20/
!!attribution-level@Jos: 1 (secure, core group [checkmark])
!!!ONB: Translated from MusicXML and edited on 2011/09/20/ by Craig Sapp
!!muse2ps: C^@{COM}\n@{SCT}^i2I150v100,100,100,110c135z18l2550t130
